assets/icons/thumb-up.svg

<?xml version="1.0" encoding="UTF-8"?>
<svg width="1024px" height="1024px" viewBox="0 0 1024 1024" version="1.1" xmlns="http://www.w3.org/2000/svg" xmlns:xlink="http://www.w3.org/1999/xlink">
    <!-- Generator: Sketch 50.2 (55047) - http://www.bohemiancoding.com/sketch -->
    <title>Artboard</title>
    <desc>Created with Sketch.</desc>
    <defs></defs>
    <g id="Artboard" stroke="none" stroke-width="1" fill="none" fill-rule="evenodd">
        <path d="M205.57068,383.433839 L32.1203024,383.433839 C13.918852,383.433839 0,398.258558 0,417.649384 L0,966.238465 C0,985.626963 13.918852,1000.45401 32.1203024,1000.45401 L205.57068,1000.45401 C223.77227,1000.45401 237.691215,985.626963 237.691215,966.238465 L237.691215,417.649384 C237.691215,398.258558 223.77227,383.433839 205.57068,383.433839 Z M118.845608,941.145824 C88.8663949,941.145824 65.3116151,914.915147 65.3116151,884.120692 C65.3116151,852.185873 89.9371725,827.095559 118.845608,827.095559 C147.75381,827.095559 172.3796,853.326236 172.3796,884.120692 C172.3796,914.915147 148.824588,941.145824 118.845608,941.145824 Z M1023.57122,456.426381 C1029.99449,380.010422 962.540854,357.200835 935.774905,357.200835 C831.918089,357.200835 729.134146,357.200835 625.27733,357.200835 C640.267285,322.98529 658.468875,231.743682 635.985106,105.145933 C626.347875,54.9632115 599.581926,21.8880739 564.249291,23.0285926 C536.41047,23.0285926 508.573976,46.9795068 506.432886,75.4925385 C503.218924,107.427125 495.72511,153.047929 489.301841,183.841919 C466.815744,283.06793 347.9713,414.225967 273.02385,459.84747 L273.02385,944.56924 C324.416986,975.363696 379.021756,985.626963 438.97925,984.4866 C532.12829,982.205874 799.799416,984.4866 847.97859,983.346237 C882.24068,983.346237 916.50277,966.238465 932.563271,921.757325 C955.04704,861.311104 897.230635,831.657011 897.230635,831.657011 C897.230635,831.657011 960.399764,835.0781 975.38972,774.631879 C990.379675,713.042967 931.492726,687.952654 931.492726,687.952654 C971.10754,683.388874 995.7324,671.985244 1005.36963,634.346283 C1016.07508,589.867471 989.30913,556.792289 947.553226,537.403791 C952.90595,538.544154 1017.14562,527.138196 1023.57122,456.426381 Z" id="Shape" fill="#000000" fill-rule="nonzero"></path>
    </g>
</svg>

<svg width="1024" height="1024" xmlns="http://www.w3.org/2000/svg"><path d="M205.57 383.434H32.12C13.92 383.434 0 398.259 0 417.649v548.59c0 19.388 13.919 34.215 32.12 34.215h173.45c18.202 0 32.121-14.827 32.121-34.216V417.65c0-19.39-13.919-34.215-32.12-34.215zm-86.724 557.712c-29.98 0-53.534-26.23-53.534-57.025 0-31.935 24.625-57.025 53.534-57.025 28.908 0 53.534 26.23 53.534 57.025 0 30.794-23.555 57.025-53.534 57.025zm904.725-484.72c6.423-76.416-61.03-99.225-87.796-99.225H625.277c14.99-34.216 33.192-125.457 10.708-252.055-9.637-50.183-36.403-83.258-71.736-82.117-27.839 0-55.675 23.95-57.816 52.464-3.214 31.934-10.708 77.555-17.131 108.349-22.486 99.226-141.33 230.384-216.278 276.005V944.57c51.393 30.795 105.998 41.058 165.955 39.918 93.15-2.281 360.82 0 409-1.14 34.262 0 68.524-17.109 84.584-61.59 22.484-60.446-35.332-90.1-35.332-90.1s63.169 3.421 78.159-57.025c14.99-61.589-43.897-86.68-43.897-86.68 39.615-4.563 64.24-15.967 73.877-53.606 10.705-44.479-16.06-77.554-57.817-96.942 5.353 1.14 69.593-10.266 76.018-80.978z" fill="#000" fill-rule="nonzero"/></svg>
